X: 37
M: 6/8
L: 1/8
K: E
b3- b2B | e2e (eg)ke | B2B Bcd | e2e f>ef | e3- e2 :|
|: f | g>fe g>fe | a2f- f2f | g>fe g>fe | b2B- B2f |
gfe gfe | agf b2a | gfe B2d | e3- e2 :|




